X:1
T:Title
L:1/8
Q:1/4=100
M:4/4
K:C
V:1 treble nm="Grand Piano"
V:1
 E E2 F E2 EF | E6 E2 | A3 G F2 E2 | D8 | D D2 E D2 DE | D6 D2 | B3 A G2 F2 | E8 | c3 B A2 B2 | %9
w: ?????~??????? * * * * *|||||||||
 A8 | c3 B A2 c2 | B8 | B3 A G2 A2 | G8 | F3 A G2 F2 | E8 |] %16
w: |||||||

